X:7559
T:India Queen. JC.139
M:C
L:1/8
Q:180
S:John Clare,Poet,Helpstone (1793-1864)
R:Reel
O:England
A:Northamptonshire
N:
Z:P Headford
K:D
DDDE FDFA|BABdA2-A2|fedd fedd|ABcdE2D2|!
DDDE FDFA|BABdA2-A2|fedd fedd|ABdcd2"$"d2:|:!
d2cd ecd2|d2cd ecd2|gb ge fa fd|edcB AGFE|!
DDDE FDFA|BABdA2-A2|fedd fedd|ABdcd2-d2:|


